X:1
T:Stjärngossar
T:Knut Håkanson (1887-1929)
T:Text: E A Karlfeldt
T:Stjärngossar 
T:Op 39 nr 2
%%score [ 1 2 3 4 ]
L:1/8
Q:1/4=120
M:4/4
K:Bb
V:1 treble nm="S"
V:2 treble nm="A"
V:3 treble-8 nm="T"
V:4 bass nm="B"
V:1
"^Andante"!mp! G Bc | d4 A2 B2 | G4 z2 G2 | B3!<(! B c2 d2!<)! | e2 G2 _A2 B2 | c3 c!>(! B2 B2 | %6
w: Det går ett|ljus i vår|by, det|ly- ser ge- nom|fönst- ret på en|gum- mas grå- a|
 A4!>)! z2!mf! A2 | c2 B2 A2 G2 | B3 A A2 D2 | B2 A2 G2 ^F2 | _A3 G G2 z2 | z8 | %12
w: hy. Då|vän- der hon sig,|kvi- dan- de av|ål- der- dom och|li- dan- de.||
"^Lento" z2!f! !>!G2 !>!G2 !>!G2 |"^ten." !>!c3 !>!A !>!B2 !>!c2 | !>!d4 z2!p! G2 |!>(! B4 A4!>)! | %16
w: "Nu stry- ker|dö- den kring vår|gård i|ny- års-|
!pp!"^Allegretto" G4 !fermata!z!mp! G=Bc |[K:G][M:2/2] d4 A2 B2 | G4 z2 G2 |!<(! B3 B!<)! c2 d2 | %20
w: ny." Det går ett|ljus vid vår|grind, det|fal- ler som ett|
 e2 A2 B2 c2 | d2 G2!>(! c3 c!>)! |"^ten.""^Vivo" B4 z!f! F!<(!Ac!<)! | e6 d2 | cAA z z ABc | %25
w: guld- flor ö- ver|jung- fruns var- ma|kind. Då far hon|upp ur|dröm- mar- na, så fäl- len|
 d6 c2 | BGG z z4 | z4 z!mf!!<(! GG!<)!G | e2 A2 z2!<(! Bc | d4!<)! z2!mp!"^poco rit." G2 | %30
w: gnyr i|söm- mar- na.|"En vac- ker|gos- se går för-|bi i|
!<(! B6!<)!!>(! A2!>)! |"^Allegretto" G4 !fermata!z!mp! G_Bc | d4 A2 _B2 | G4 z2!f!"^deciso" G2 | %34
w: ny- års-|vind." Det går ett|ljus kring vårt|stall. Nej|
 G3 F G2 A2 | B2 c2 B2 A2 | G3 A _B2 G2 |!ff! d4 z2!mf! D2 |"^(marziale)" B3 A G2 D2 | %39
w: här är ing- en|sorg och död, fast|nat- ten är så|kall. Men|vack- ra gos- sar|
 G2 A2 !breath!B2 D2 | d3 c B2 A2 | G2 B2 !breath!d2 B2 | G2!<(! G2 A2 B2!<)! | %43
w: är- om vi, en|vac- ker stjär- na|bä- rom vi, som|mar- kens her- dar|
!f! c3 d !breath!e2 G2 | B6 A2 | G4 z2!mp! D2 |"^espress." A3 F E2 D2 | G2 A2 B2 B2 | d3 B A2 F2 | %49
w: vand- rom vi i|ny- års-|vall. Men|vack- ra gos- sar|är- om vi, en|vac- ker stjär- na|
 B2 A2 G2 G2 |"^rit." F3"^dim." G A2 D2 | E2 F2 G2 A2 | B4 d4 |!pp! !fermata!d8 |] %54
w: bä- rom vi, som|mar- kens her- dar|vand- rom vi i|ny- års-|vall.|
V:2
!mp! G GG | G4 ^F2 F2 | D4 z2 G2 | G3!<(! G G2!<)! G2 | E2 E2 F2 G2 | _A3 A!>(! G2 F2!>)! | %6
w: Det går ett|ljus i vår|by, det|ly- ser ge- nom|fönst- ret på en|gum- mas grå- a|
 =E4 z4 | z4 z2!mf! D2 | F2 E2 D2 C2 | E3 D D2 A,2 | E2 D2 C2 B,2 |!>(! D3 ^C C2!>)! z2 | %12
w: hy.|Då|vän- der hon sig,|kvi- dan- de av|ål- der- dom och|li- dan- de.|
 z2!f! !>!G2 !>!G2 !>!G2 | !>!^F3 !>!F !>!F2 !>!F2 | !>!G4 z2!p! E2 |!>(! D4 D4!>)! | %16
w: "Nu stry- ker|dö- den kring vår|gård i|ny- års-|
!pp! D4 !fermata!z!mp! GGG |[K:G][M:2/2] G4 F2 F2 | D4 z2 G2 |!<(! G3 G!<)! G2 G2 | G2 G2 D2 D2 | %21
w: ny." Det går ett|ljus vid vår|grind, det|fal- ler som ett|guld- flor ö- ver|
 D2 =F2!>(! E3 E!>)! | ^D4 z!f!!<(! DFA!<)! | c6 B2 | AAA z z FGA | B6 A2 | GGG z z4 | %27
w: jung- fruns var- ma|kind. Då far hon|upp ur|dröm- mar- na, så fäl- len|gnyr i|söm- mar- na.|
 z4 z!mf!!<(! GG!<)!G | A2 G2 z2!<(! GG | G4!<)! z2!mp! E2 |!<(! D4!<)!!>(! C4!>)! | %31
w: "En vac- ker|gos- se går för-|bi i|ny- års-|
 B,4 !fermata!z!mp! GGG | G4 F2 F2 | D4 z2!f! D2 | D3 D D2 F2 | G2 G2 G2 D2 | G3 G G2 G2 | %37
w: vind." Det går ett|ljus kring vårt|stall. Nej|här är ing- en|sorg och död, fast|nat- ten är så|
!ff! A4 z2!mp! D2 | G3 D B,2 A,2 | B,2 C2 !breath!D2 D2 | B3 A G2 D2 | (B,D) G2 !breath!B2 D2 | %42
w: kall. Men|vack- ra gos- sar|är- om vi, en|vac- ker stjär- na|bä- * rom vi, som|
 B,2!<(! B,2 D2 D2!<)! |!f! G3 G !breath!G2 E2 | D4 C4 | B,4 z2!p! D2 | D3 D D2 D2 | D2 D2 D2 D2 | %48
w: mar- kens her- dar|vand- rom vi i|ny- års-|vall. Men|vack- ra gos- sar|är- om vi, en|
 D3 D D2 D2 | D2 D2 D2 D2 | D3 D D2 D2 | C2 D2 E2 F2 | [DG]4 [CF]4 |!pp! !fermata![B,G]8 |] %54
w: vac- ker stjär- na|bä- rom vi, som|mar- kens her- dar|vand- rom vi i|ny- års-|vall.|
V:3
!mp! G GA | B4 c2 d2 | B4 z2 B2 | d3!<(! d c2!<)! B2 | c2 c2 c2 f2 | f3 e!>(! d2 d2!>)! | A4 z4 | %7
w: Det går ett|ljus i vår|by, det|ly- ser ge- nom|fönst- ret på en|gum- mas grå- a|hy.|
 z4 z2!mf! B2 | d2 c2 B2 A2 | c3 B B2 D2 | c2 B2 A2 G2 |!>(! B3 A!>)! A2 z2 | %12
w: Då|vän- der hon sig,|kvi- dan- de av|ål- der- dom och|li- dan- de.|
 z2!f! !>!G2 !>!G2 !>!G2 | !>!e3 !>!e !>!e2 !>!e2 | !>!d4 z2!p! B2 |!>(! F4 ^F4!>)! | %16
w: "Nu stry- ker|dö- den kring vår|gård i|ny- års-|
!pp! G4 !fermata!z!mp! GGA |[K:G][M:2/2] B4 c2 d2 | B4 z2 B2 |!<(! d3 d!<)! c2 B2 | A2 A2 F2 F2 | %21
w: ny." Det går ett|ljus vid vår|grind, det|fal- ler som ett|guld- flor ö- ver|
 G2 G2!>(! A2 G2!>)! | F4 z4 | z!f!!<(! FAc!<)! e4- | e2 d2 cAA z | z!<(! ABc!<)! d4- | %26
w: jung- fruns var- ma|kind.|Då far hon upp|_ ur dröm- mar- na,|så fäl- len gnyr|
 d2 c2 BGG z | z4 z!mf!!<(! GGG!<)! | g2 e2 z2!<(! ee | d4!<)! z2!mp! B2 |!<(! F4!<)!!>(! F4!>)! | %31
w: _ i söm- mar- na.|"En vac- ker|gos- se går för-|bi i|ny- års-|
 G4 !fermata!z!mp! GGA | _B4 c2 d2 | _B4 z2!f! =B2 | B3 A B2 c2 | d2 _e2 d2 A2 | B3 c ^c2 c2 | %37
w: vind." Det går ett|ljus kring vårt|stall. Nej|här är ing- en|sorg och död, fast|nat- ten är så|
!ff! [Ad]4 z2!mp! D2 | D2 G2 G2 D2 | D2 G2 !breath!G2 D2 | D2 G2 G2 D2 | D2 G2 !breath!G2 D2 | %42
w: kall. Men|vack- ra gos- sar|är- om vi, en|vac- ker stjär- na|bä- rom vi, som|
 D2!<(! G2 G2 G2!<)! |!f! G3 B !breath!c2 B2 | F4 F4 | G4 z4 | z4 z2!mp! D2 | %47
w: mar- kens her- dar|vand- rom vi i|ny- års-|vall.|Men|
"^espress." B3 A G2 G2 | F2 E2 F2 D2 | d3 c B2 B2 | A2 G2 F2"^espress." A2 | d2 c2 B2 A2 | %52
w: vack- ra gos- sar|är- om vi, en|vac- ker stjär- na|bä- rom vi, som|her- dar vand- rom|
 G2 F2 E2 D2 |!pp! !fermata!G8 |] %54
w: vi i ny- års-|vall.|
V:4
!mp! G, G,G, | G,4 D,2 D,2 | G,,4 z2 G,2 | G,3!<(! F, E,2!<)! D,2 | C,2 C,2 C2 C2 | %5
w: Det går ett|ljus i vår|by, det|ly- ser ge- nom|fönst- ret på en|
 F,3 F,!>(! G,2 G,2!>)! | A,4 z4 |!mp! D,8 | D,4 D,4 | D,4 D,4 | D,4 D,4 |!>(! D,6!>)! z2 | %12
w: gum- mas grå- a|hy.|Då|vän- der|hon sig,|kvi- dan-|de|
 z2!f! G,2 G,2 G,2 | A,3 C B,2 A,2 | B,4 z2!p! E,2 |!>(! (B,,2 C,2) D,4!>)! | %16
w: "Nu stry- ker|dö- den kring vår|gård i|ny- * års-|
!pp! [G,,D,]4 !fermata!z!mp! G,G,G, |[K:G][M:2/2] G,4 D,2 D,2 | G,,4 z2 G,2 | %19
w: ny." Det går ett|ljus vid vår|grind, det|
!<(! G,3 =F,!<)! E,2 D,2 | ^C,2 C,2 =C,2 C,2 | B,,2 B,,2!>(! A,,3 A,,!>)! | B,,4 z4 | %23
w: fal- ler som ett|guld- flor ö- ver|jung- fruns var- ma|kind.|
 z!f!!<(! D,F,!<)!A, C4- | C2 B,2 A,A,A, z | z!<(! F,G,A,!<)! B,4- | B,2 A,2 G,G,G, z | %27
w: Då far hon upp|_ ur dröm- mar- na,|så fäl- len gnyr|_ i söm- mar- na.|
 z4 z!mf! G,G,G, | C2 C2 z2!<(! B,A, | B,4!<)! z2!mp! E,2 |!<(! (B,,2!<)! C,2)!>(! D,4!>)! | %31
w: "En vac- ker|gos- se går för-|bi i|ny- * års-|
 [G,,D,]4 !fermata!z!mp! G,G,G, | G,4 D,2 D,2 | G,,4 z2!f! G,2 | G,3 G, G,2 G,2 | G,2 C,2 G,2 F,2 | %36
w: vind." Det går ett|ljus kring vårt|stall. Nej|här är ing- en|sorg och död, fast|
 E,3 E, _E,2 E,2 |!ff! D,4 z2!mp! D,2 | G,,2 D,2 D,2 G,,2 | G,,2 D,2 !breath!D,2 G,,2 | %40
w: nat- ten är så|kall. Men|vack- ra gos- sar|är- om vi, en|
 G,,2 D,2 D,2 G,,2 | G,,2 D,2 !breath!D,2 G,,2 | G,,2!<(! G,2 F,2 =F,2!<)! | %43
w: vac- ker stjär- na|bä- rom vi, som|mar- kens her- dar|
!f! E,3 D, !breath!C,2 E,2 | (B,,2 C,2) D,4 |!>(! [G,,D,]2 [D,G,]2 [D,G,]2 [G,,D,]2!>)! | %46
w: vand- rom vi i|ny- * års-|vall. Men vack- ra|
!p! [G,,D,]6 [G,,D,]2 | [G,,D,]6 [G,,D,]2 | [G,,D,]6 [G,,D,]2 | [G,,D,]6 [G,,D,]2 | %50
w: gos- sar|är- om|vi, som|her- dar|
 [G,,D,]6 [G,,D,]2 | [G,,D,]6 [G,,D,]2 | [G,,D,]6 [G,,D,]2 |!pp! !fermata![G,,D,]8 |] %54
w: vand- rom|vi i|ny- års-|vall.|

